public/images/svg/twitch.svg

<!-- Generated by IcoMoon.io -->
<svg version="1.1" xmlns="http://www.w3.org/2000/svg" width="32" height="32" viewBox="0 0 32 32">
<title>twitch</title>
<path fill="#fff" d="M26 15l-4 4h-4l-3.5 3.5v-3.5h-4.5v-15h16v11z"></path>
<path fill="#9146ff" d="M9 2l-5 5v18h6v5l5-5h4l9-9v-14h-19zM26 15l-4 4h-4l-3.5 3.5v-3.5h-4.5v-15h16v11z"></path>
<path fill="#9146ff" d="M23 7.5h-2v6h2v-6zM17.5 7.5h-2v6h2v-6z"></path>
</svg>

<svg xmlns="http://www.w3.org/2000/svg" width="32" height="32"><path fill="#fff" d="m26 15-4 4h-4l-3.5 3.5V19H10V4h16v11z"/><path fill="#9146ff" d="M9 2 4 7v18h6v5l5-5h4l9-9V2H9zm17 13-4 4h-4l-3.5 3.5V19H10V4h16v11z"/><path fill="#9146ff" d="M23 7.5h-2v6h2v-6zm-5.5 0h-2v6h2v-6z"/></svg>
